src/assets/images/wallapop-pro.svg

<svg width="209" height="41" viewBox="0 0 209 41" fill="none" xmlns="http://www.w3.org/2000/svg">
<g filter="url(#filter0_d)">
<path d="M114.64 19.0002C114.64 16.5042 116.656 14.5202 119.152 14.5202C121.648 14.5202 123.664 16.5042 123.664 19.0002C123.664 21.4962 121.648 23.5122 119.152 23.5122C116.656 23.5122 114.64 21.4962 114.64 19.0002ZM110.544 19.0002C110.544 23.7682 114.384 27.6082 119.152 27.6082C123.92 27.6082 127.76 23.7682 127.76 19.0002C127.76 14.2642 123.92 10.3922 119.152 10.3922C114.384 10.3922 110.544 14.2642 110.544 19.0002ZM18.576 26.3602C19.792 27.1922 21.232 27.6082 22.704 27.6082C27.344 27.6082 30.736 23.8002 30.448 19.0642L30.032 12.0242C29.968 11.0962 29.232 10.3922 28.272 10.3922C27.312 10.3922 26.608 11.1282 26.544 12.1202L26.064 20.0882C25.968 21.8482 24.56 23.2242 22.8 23.2242C21.2 23.2242 19.664 21.9762 19.504 20.2162L18.96 14.3922C18.864 13.4962 18.256 12.7922 17.36 12.7922C16.464 12.7922 15.856 13.4962 15.76 14.3922L15.216 20.2162C15.056 21.9762 13.52 23.2242 11.92 23.2242C10.16 23.2242 8.752 21.8482 8.656 20.0882L8.176 12.1202C8.112 11.1282 7.408 10.3922 6.448 10.3922C5.488 10.3922 4.752 11.0962 4.688 12.0242L4.272 19.0642C3.984 23.8002 7.376 27.6082 12.016 27.6082C13.488 27.6082 14.928 27.1922 16.144 26.3602C16.464 26.1362 16.944 25.9762 17.36 25.9762C17.776 25.9762 18.256 26.1362 18.576 26.3602ZM36.816 19.0002C36.816 16.5042 38.832 14.5202 41.328 14.5202C43.824 14.5202 45.84 16.5042 45.84 19.0002C45.84 21.4962 43.824 23.5122 41.328 23.5122C38.832 23.5122 36.816 21.4962 36.816 19.0002ZM75.056 19.0002C75.056 16.5042 77.072 14.5202 79.568 14.5202C82.064 14.5202 84.08 16.5042 84.08 19.0002C84.08 21.4962 82.064 23.5122 79.568 23.5122C77.072 23.5122 75.056 21.4962 75.056 19.0002ZM133.808 19.0002C133.808 16.5042 135.824 14.5202 138.32 14.5202C140.816 14.5202 142.832 16.5042 142.832 19.0002C142.832 21.4962 140.816 23.5122 138.32 23.5122C135.824 23.5122 133.808 21.4962 133.808 19.0002ZM133.968 28.3122C134 27.4802 134.416 27.0642 135.088 27.0642C135.216 27.0642 135.504 27.1282 135.6 27.1602C136.464 27.4482 137.36 27.6082 138.32 27.6082C143.088 27.6082 146.928 23.7682 146.928 19.0002C146.928 14.2642 143.088 10.3922 138.32 10.3922C133.552 10.3922 129.712 14.2642 129.712 19.0002V19.5442L130.16 32.7282C130.192 33.7202 130.96 34.5202 131.952 34.5202C132.944 34.5202 133.68 33.7202 133.744 32.7282L133.968 28.3122ZM95.76 19.0002C95.76 16.5042 97.776 14.5202 100.272 14.5202C102.768 14.5202 104.784 16.5042 104.784 19.0002C104.784 21.4962 102.768 23.5122 100.272 23.5122C97.776 23.5122 95.76 21.4962 95.76 19.0002ZM92.112 32.7282C92.144 33.7202 92.912 34.5202 93.904 34.5202C94.896 34.5202 95.632 33.7202 95.696 32.7282L95.92 28.3122C95.952 27.4802 96.368 27.0642 97.04 27.0642C97.168 27.0642 97.456 27.1282 97.552 27.1602C98.416 27.4482 99.312 27.6082 100.272 27.6082C105.04 27.6082 108.88 23.7682 108.88 19.0002C108.88 14.2642 105.04 10.3922 100.272 10.3922C95.504 10.3922 91.664 14.2642 91.664 19.0002V19.5442L91.728 21.6242C91.76 22.5202 91.312 23.4162 90.256 23.4162C89.424 23.4162 88.752 22.9042 88.656 22.1042L88.08 17.8162C87.504 13.6562 83.92 10.3922 79.568 10.3922C74.8 10.3922 70.96 14.2642 70.96 19.0002C70.96 19.6402 71.024 20.2482 71.152 20.8562C71.216 21.1762 71.28 21.4002 71.28 21.6882C71.28 22.7762 70.48 23.4162 69.296 23.4162C68.048 23.4162 67.344 22.5522 67.312 21.3362L66.704 4.31215C66.672 3.32015 65.904 2.52015 64.912 2.52015C63.92 2.52015 63.152 3.32015 63.12 4.31215L62.48 21.3362C62.448 22.5522 61.744 23.4162 60.496 23.4162C59.248 23.4162 58.544 22.5522 58.512 21.3362L57.872 4.31215C57.84 3.32015 57.072 2.52015 56.08 2.52015C55.088 2.52015 54.32 3.32015 54.288 4.31215L53.648 21.8802C53.616 22.7762 52.784 23.4162 52.016 23.4162C51.184 23.4162 50.512 22.9042 50.416 22.1042L49.84 17.8162C49.264 13.6562 45.68 10.3922 41.328 10.3922C36.56 10.3922 32.72 14.2642 32.72 19.0002C32.72 23.7682 36.56 27.6082 41.328 27.6082C43.28 27.6082 45.104 26.9362 46.544 25.8482C46.8 25.6562 47.024 25.5602 47.28 25.5602C47.728 25.5602 48.016 25.7842 48.24 26.0402C49.136 27.0642 50.48 27.6082 51.792 27.6082C52.944 27.6082 54.16 27.2242 54.992 26.3602C55.376 25.9762 55.856 25.7522 56.304 25.7522C56.784 25.7522 57.264 25.9762 57.616 26.3602C58.416 27.2242 59.536 27.6082 60.592 27.6082C61.68 27.6082 62.704 27.2242 63.536 26.3602C63.92 25.9762 64.4 25.7522 64.848 25.7522C65.328 25.7522 65.776 25.9762 66.16 26.3602C67.024 27.1922 68.336 27.6082 69.68 27.6082C71.024 27.6082 72.368 27.1922 73.232 26.3282C73.488 26.0402 73.744 25.8802 74.064 25.8802C74.288 25.8802 74.544 25.9762 74.8 26.1682C76.176 27.0642 77.808 27.6082 79.568 27.6082C81.232 27.6082 82.768 27.0642 84.112 26.2962C84.592 26.0082 84.912 25.7522 85.456 25.7522C86.768 25.7522 86.8 27.1602 88.88 27.1602C89.808 27.1602 90.128 26.6802 90.8 26.6802C91.664 26.6802 91.92 27.2882 91.952 27.8642L92.112 32.7282ZM167.196 12.3442C171.068 12.3442 173.724 15.2562 173.724 19.2562C173.724 23.2562 171.068 26.1682 167.196 26.1682C163.228 26.1682 160.668 23.2562 160.668 19.2562C160.668 15.2562 163.228 12.3442 167.196 12.3442ZM160.668 34.0722V26.7122C160.668 25.9442 160.636 23.7362 160.636 23.7362H160.668C162.012 26.1042 164.38 27.5442 167.388 27.5442C172.028 27.5442 175.196 23.9922 175.196 19.2562C175.196 14.5202 172.028 10.9682 167.388 10.9682C164.38 10.9682 162.012 12.4082 160.668 14.7762H160.636V11.3522H159.228V34.0722H160.668ZM181.417 27.1602V18.1042C181.417 14.9682 183.433 12.5042 186.505 12.5042C186.889 12.5042 187.113 12.5362 187.113 12.5362V11.2242H186.761C183.529 11.2242 182.121 13.0162 181.449 14.2962H181.417V11.3522H180.009V27.1602H181.417ZM196.917 12.3442C200.789 12.3442 203.477 15.2562 203.477 19.2562C203.477 23.2562 200.789 26.1682 196.917 26.1682C193.045 26.1682 190.357 23.2562 190.357 19.2562C190.357 15.2562 193.045 12.3442 196.917 12.3442ZM196.917 27.5442C201.557 27.5442 204.949 23.9922 204.949 19.2562C204.949 14.5202 201.557 10.9682 196.917 10.9682C192.277 10.9682 188.885 14.5202 188.885 19.2562C188.885 23.9922 192.277 27.5442 196.917 27.5442Z" fill="#13C1AC"/>
</g>
<defs>
<filter id="filter0_d" x="0.254944" y="0.519531" width="208.694" height="40" filterUnits="userSpaceOnUse" color-interpolation-filters="sRGB">
<feFlood flood-opacity="0" result="BackgroundImageFix"/>
<feColorMatrix in="SourceAlpha" type="matrix" values="0 0 0 0 0 0 0 0 0 0 0 0 0 0 0 0 0 0 127 0"/>
<feOffset dy="2"/>
<feGaussianBlur stdDeviation="2"/>
<feColorMatrix type="matrix" values="0 0 0 0 0.145098 0 0 0 0 0.196078 0 0 0 0 0.219608 0 0 0 0.1 0"/>
<feBlend mode="normal" in2="BackgroundImageFix" result="effect1_dropShadow"/>
<feBlend mode="normal" in="SourceGraphic" in2="effect1_dropShadow" result="shape"/>
</filter>
</defs>
</svg>

<svg width="209" height="41" fill="none" xmlns="http://www.w3.org/2000/svg"><g filter="url(#filter0_d)"><path d="M114.64 19c0-2.496 2.016-4.48 4.512-4.48 2.496 0 4.512 1.984 4.512 4.48a4.507 4.507 0 01-4.512 4.512A4.507 4.507 0 01114.64 19zm-4.096 0a8.59 8.59 0 008.608 8.608A8.59 8.59 0 00127.76 19c0-4.736-3.84-8.608-8.608-8.608-4.768 0-8.608 3.872-8.608 8.608zm-91.968 7.36c1.216.832 2.656 1.248 4.128 1.248 4.64 0 8.032-3.808 7.744-8.544l-.416-7.04a1.73 1.73 0 00-1.76-1.632c-.96 0-1.664.736-1.728 1.728l-.48 7.968c-.096 1.76-1.504 3.136-3.264 3.136-1.6 0-3.136-1.248-3.296-3.008l-.544-5.824c-.096-.896-.704-1.6-1.6-1.6-.896 0-1.504.704-1.6 1.6l-.544 5.824c-.16 1.76-1.696 3.008-3.296 3.008-1.76 0-3.168-1.376-3.264-3.136l-.48-7.968c-.064-.992-.768-1.728-1.728-1.728a1.73 1.73 0 00-1.76 1.632l-.416 7.04c-.288 4.736 3.104 8.544 7.744 8.544 1.472 0 2.912-.416 4.128-1.248.32-.224.8-.384 1.216-.384.416 0 .896.16 1.216.384zM36.816 19c0-2.496 2.016-4.48 4.512-4.48 2.496 0 4.512 1.984 4.512 4.48a4.507 4.507 0 01-4.512 4.512A4.507 4.507 0 0136.816 19zm38.24 0c0-2.496 2.016-4.48 4.512-4.48 2.496 0 4.512 1.984 4.512 4.48a4.507 4.507 0 01-4.512 4.512A4.507 4.507 0 0175.056 19zm58.752 0c0-2.496 2.016-4.48 4.512-4.48 2.496 0 4.512 1.984 4.512 4.48a4.507 4.507 0 01-4.512 4.512A4.507 4.507 0 01133.808 19zm.16 9.312c.032-.832.448-1.248 1.12-1.248.128 0 .416.064.512.096A8.59 8.59 0 00146.928 19c0-4.736-3.84-8.608-8.608-8.608-4.768 0-8.608 3.872-8.608 8.608v.544l.448 13.184c.032.992.8 1.792 1.792 1.792s1.728-.8 1.792-1.792l.224-4.416zM95.76 19c0-2.496 2.016-4.48 4.512-4.48 2.496 0 4.512 1.984 4.512 4.48a4.507 4.507 0 01-4.512 4.512A4.507 4.507 0 0195.76 19zm-3.648 13.728c.032.992.8 1.792 1.792 1.792s1.728-.8 1.792-1.792l.224-4.416c.032-.832.448-1.248 1.12-1.248.128 0 .416.064.512.096A8.59 8.59 0 00108.88 19c0-4.736-3.84-8.608-8.608-8.608-4.768 0-8.608 3.872-8.608 8.608v.544l.064 2.08c.032.896-.416 1.792-1.472 1.792-.832 0-1.504-.512-1.6-1.312l-.576-4.288c-.576-4.16-4.16-7.424-8.512-7.424-4.768 0-8.608 3.872-8.608 8.608 0 .64.064 1.248.192 1.856.064.32.128.544.128.832 0 1.088-.8 1.728-1.984 1.728-1.248 0-1.952-.864-1.984-2.08l-.608-17.024c-.032-.992-.8-1.792-1.792-1.792s-1.76.8-1.792 1.792l-.64 17.024c-.032 1.216-.736 2.08-1.984 2.08s-1.952-.864-1.984-2.08l-.64-17.024c-.032-.992-.8-1.792-1.792-1.792s-1.76.8-1.792 1.792l-.64 17.568c-.032.896-.864 1.536-1.632 1.536-.832 0-1.504-.512-1.6-1.312l-.576-4.288c-.576-4.16-4.16-7.424-8.512-7.424-4.768 0-8.608 3.872-8.608 8.608a8.59 8.59 0 008.608 8.608 8.677 8.677 0 005.216-1.76c.256-.192.48-.288.736-.288.448 0 .736.224.96.48.896 1.024 2.24 1.568 3.552 1.568 1.152 0 2.368-.384 3.2-1.248.384-.384.864-.608 1.312-.608.48 0 .96.224 1.312.608.8.864 1.92 1.248 2.976 1.248 1.088 0 2.112-.384 2.944-1.248.384-.384.864-.608 1.312-.608.48 0 .928.224 1.312.608.864.832 2.176 1.248 3.52 1.248 1.344 0 2.688-.416 3.552-1.28.256-.288.512-.448.832-.448.224 0 .48.096.736.288 1.376.896 3.008 1.44 4.768 1.44 1.664 0 3.2-.544 4.544-1.312.48-.288.8-.544 1.344-.544 1.312 0 1.344 1.408 3.424 1.408.928 0 1.248-.48 1.92-.48.864 0 1.12.608 1.152 1.184l.16 4.864zm75.084-20.384c3.872 0 6.528 2.912 6.528 6.912s-2.656 6.912-6.528 6.912c-3.968 0-6.528-2.912-6.528-6.912s2.56-6.912 6.528-6.912zm-6.528 21.728v-7.36c0-.768-.032-2.976-.032-2.976h.032c1.344 2.368 3.712 3.808 6.72 3.808 4.64 0 7.808-3.552 7.808-8.288 0-4.736-3.168-8.288-7.808-8.288-3.008 0-5.376 1.44-6.72 3.808h-.032v-3.424h-1.408v22.72h1.44zm20.749-6.912v-9.056c0-3.136 2.016-5.6 5.088-5.6.384 0 .608.032.608.032v-1.312h-.352c-3.232 0-4.64 1.792-5.312 3.072h-.032v-2.944h-1.408V27.16h1.408zm15.5-14.816c3.872 0 6.56 2.912 6.56 6.912s-2.688 6.912-6.56 6.912c-3.872 0-6.56-2.912-6.56-6.912s2.688-6.912 6.56-6.912zm0 15.2c4.64 0 8.032-3.552 8.032-8.288 0-4.736-3.392-8.288-8.032-8.288-4.64 0-8.032 3.552-8.032 8.288 0 4.736 3.392 8.288 8.032 8.288z" fill="#13C1AC"/></g><defs><filter id="filter0_d" x=".255" y=".52" width="208.694" height="40" filterUnits="userSpaceOnUse" color-interpolation-filters="sRGB"><feFlood flood-opacity="0" result="BackgroundImageFix"/><feColorMatrix in="SourceAlpha" values="0 0 0 0 0 0 0 0 0 0 0 0 0 0 0 0 0 0 127 0"/><feOffset dy="2"/><feGaussianBlur stdDeviation="2"/><feColorMatrix values="0 0 0 0 0.145098 0 0 0 0 0.196078 0 0 0 0 0.219608 0 0 0 0.1 0"/><feBlend in2="BackgroundImageFix" result="effect1_dropShadow"/><feBlend in="SourceGraphic" in2="effect1_dropShadow" result="shape"/></filter></defs></svg>
